Catalina-dark/actions/22/transform-move.svg

<svg xmlns="http://www.w3.org/2000/svg" viewBox="0 0 22 22">
  <defs id="defs3051">
    <style type="text/css" id="current-color-scheme">
      .ColorScheme-Text {
        color:#f2f2f2;
      }
      </style>
  </defs>
 <path 
    style="fill:currentColor;fill-opacity:1;stroke:none" 
    d="M 11 3 L 9 7 L 13 7 L 11 3 z M 7 9 L 3 11 L 7 13 L 7 9 z M 15 9 L 15 13 L 19 11 L 15 9 z M 11 10 C 10.446 10 10 10.446 10 11 C 10 11.554 10.446 12 11 12 C 11.554 12 12 11.554 12 11 C 12 10.446 11.554 10 11 10 z M 9 15 L 11 19 L 13 15 L 9 15 z "
	class="ColorScheme-Text"
    />  
</svg>

<svg viewBox="0 0 22 22" xmlns="http://www.w3.org/2000/svg">
<defs>
<style id="current-color-scheme" type="text/css">.ColorScheme-Text {
        color:#f2f2f2;
      }</style>
</defs>
<path class="ColorScheme-Text" d="m11 3-2 4h4l-2-4zm-4 6-4 2 4 2v-4zm8 0v4l4-2-4-2zm-4 1c-0.554 0-1 0.446-1 1s0.446 1 1 1 1-0.446 1-1-0.446-1-1-1zm-2 5 2 4 2-4h-4z" fill="currentColor"/>
</svg>
